flaticon/constructions/wallpaper.svg

<svg xmlns="http://www.w3.org/2000/svg" width="32" height="32" viewBox="0 0 24 24">
    <path d="M22 12.386719C21.800781 12.386719 21.601562 12.589844 21.601562 12.789062 21.601562 13.027344 21.761719 13.1875 22 13.1875 22.238281 13.1875 22.398438 13.027344 22.398438 12.789062 22.398438 12.546875 22.238281 12.386719 22 12.386719zM23.199219 11.1875C23 11.1875 22.800781 11.386719 22.800781 11.589844 22.800781 11.828125 22.960938 11.988281 23.199219 11.988281 23.441406 11.988281 23.601562 11.828125 23.601562 11.589844 23.601562 11.347656 23.441406 11.1875 23.199219 11.1875zM20.800781 11.1875C20.601562 11.1875 20.398438 11.386719 20.398438 11.589844 20.398438 11.828125 20.558594 11.988281 20.800781 11.988281 21.039062 11.988281 21.199219 11.828125 21.199219 11.589844 21.199219 11.347656 21.039062 11.1875 20.800781 11.1875zM19.601562 12.386719C19.398438 12.386719 19.199219 12.589844 19.199219 12.789062 19.199219 13.027344 19.359375 13.1875 19.601562 13.1875 19.839844 13.1875 20 13.027344 20 12.789062 20 12.546875 19.839844 12.386719 19.601562 12.386719zM17.199219 12.386719C17 12.386719 16.800781 12.589844 16.800781 12.789062 16.800781 13.027344 16.960938 13.1875 17.199219 13.1875 17.441406 13.1875 17.601562 13.027344 17.601562 12.789062 17.601562 12.546875 17.441406 12.386719 17.199219 12.386719zM18.398438 11.1875C18.199219 11.1875 18 11.386719 18 11.589844 18 11.828125 18.160156 11.988281 18.398438 11.988281 18.640625 11.988281 18.800781 11.828125 18.800781 11.589844 18.800781 11.347656 18.640625 11.1875 18.398438 11.1875zM16 11.1875C15.800781 11.1875 15.601562 11.386719 15.601562 11.589844 15.601562 11.828125 15.761719 11.988281 16 11.988281 16.238281 11.988281 16.398438 11.828125 16.398438 11.589844 16.398438 11.347656 16.238281 11.1875 16 11.1875zM14.800781 12.386719C14.601562 12.386719 14.398438 12.589844 14.398438 12.789062 14.398438 13.027344 14.558594 13.1875 14.800781 13.1875 15.039062 13.1875 15.199219 13.027344 15.199219 12.789062 15.199219 12.546875 15.039062 12.386719 14.800781 12.386719zM12.398438 12.386719C12.199219 12.386719 12 12.589844 12 12.789062 12 13.027344 12.160156 13.1875 12.398438 13.1875 12.640625 13.1875 12.800781 13.027344 12.800781 12.789062 12.800781 12.546875 12.640625 12.386719 12.398438 12.386719zM13.601562 11.1875C13.398438 11.1875 13.199219 11.386719 13.199219 11.589844 13.199219 11.828125 13.359375 11.988281 13.601562 11.988281 13.839844 11.988281 14 11.828125 14 11.589844 14 11.347656 13.839844 11.1875 13.601562 11.1875zM22 9.988281C21.800781 9.988281 21.601562 10.1875 21.601562 10.386719 21.601562 10.628906 21.761719 10.789062 22 10.789062 22.238281 10.789062 22.398438 10.628906 22.398438 10.386719 22.398438 10.148438 22.238281 9.988281 22 9.988281zM22 7.589844C21.800781 7.589844 21.601562 7.789062 21.601562 7.988281 21.601562 8.226562 21.761719 8.386719 22 8.386719 22.238281 8.386719 22.398438 8.226562 22.398438 7.988281 22.398438 7.746094 22.238281 7.589844 22 7.589844zM23.199219 8.789062C23 8.789062 22.800781 8.988281 22.800781 9.1875 22.800781 9.429688 22.960938 9.589844 23.199219 9.589844 23.441406 9.589844 23.601562 9.429688 23.601562 9.1875 23.601562 8.949219 23.441406 8.789062 23.199219 8.789062zM20.800781 8.789062C20.601562 8.789062 20.398438 8.988281 20.398438 9.1875 20.398438 9.429688 20.558594 9.589844 20.800781 9.589844 21.039062 9.589844 21.199219 9.429688 21.199219 9.1875 21.199219 8.949219 21.039062 8.789062 20.800781 8.789062zM19.601562 9.988281C19.398438 9.988281 19.199219 10.1875 19.199219 10.386719 19.199219 10.628906 19.359375 10.789062 19.601562 10.789062 19.839844 10.789062 20 10.628906 20 10.386719 20 10.148438 19.839844 9.988281 19.601562 9.988281zM17.199219 9.988281C17 9.988281 16.800781 10.1875 16.800781 10.386719 16.800781 10.628906 16.960938 10.789062 17.199219 10.789062 17.441406 10.789062 17.601562 10.628906 17.601562 10.386719 17.601562 10.148438 17.441406 9.988281 17.199219 9.988281zM19.601562 7.589844C19.398438 7.589844 19.199219 7.789062 19.199219 7.988281 19.199219 8.226562 19.359375 8.386719 19.601562 8.386719 19.839844 8.386719 20 8.226562 20 7.988281 20 7.746094 19.839844 7.589844 19.601562 7.589844zM17.199219 7.589844C17 7.589844 16.800781 7.789062 16.800781 7.988281 16.800781 8.226562 16.960938 8.386719 17.199219 8.386719 17.441406 8.386719 17.601562 8.226562 17.601562 7.988281 17.601562 7.746094 17.441406 7.589844 17.199219 7.589844zM18.398438 8.789062C18.199219 8.789062 18 8.988281 18 9.1875 18 9.429688 18.160156 9.589844 18.398438 9.589844 18.640625 9.589844 18.800781 9.429688 18.800781 9.1875 18.800781 8.949219 18.640625 8.789062 18.398438 8.789062zM16 8.789062C15.800781 8.789062 15.601562 8.988281 15.601562 9.1875 15.601562 9.429688 15.761719 9.589844 16 9.589844 16.238281 9.589844 16.398438 9.429688 16.398438 9.1875 16.398438 8.949219 16.238281 8.789062 16 8.789062zM14.800781 9.988281C14.601562 9.988281 14.398438 10.1875 14.398438 10.386719 14.398438 10.628906 14.558594 10.789062 14.800781 10.789062 15.039062 10.789062 15.199219 10.628906 15.199219 10.386719 15.199219 10.148438 15.039062 9.988281 14.800781 9.988281zM12.398438 9.988281C12.199219 9.988281 12 10.1875 12 10.386719 12 10.628906 12.160156 10.789062 12.398438 10.789062 12.640625 10.789062 12.800781 10.628906 12.800781 10.386719 12.800781 10.148438 12.640625 9.988281 12.398438 9.988281zM14.800781 7.589844C14.601562 7.589844 14.398438 7.789062 14.398438 7.988281 14.398438 8.226562 14.558594 8.386719 14.800781 8.386719 15.039062 8.386719 15.199219 8.226562 15.199219 7.988281 15.199219 7.746094 15.039062 7.589844 14.800781 7.589844zM12.398438 7.589844C12.199219 7.589844 12 7.789062 12 7.988281 12 8.226562 12.160156 8.386719 12.398438 8.386719 12.640625 8.386719 12.800781 8.226562 12.800781 7.988281 12.800781 7.746094 12.640625 7.589844 12.398438 7.589844zM13.601562 8.789062C13.398438 8.789062 13.199219 8.988281 13.199219 9.1875 13.199219 9.429688 13.359375 9.589844 13.601562 9.589844 13.839844 9.589844 14 9.429688 14 9.1875 14 8.949219 13.839844 8.789062 13.601562 8.789062zM22 5.1875C21.800781 5.1875 21.601562 5.386719 21.601562 5.589844 21.601562 5.828125 21.761719 5.988281 22 5.988281 22.238281 5.988281 22.398438 5.828125 22.398438 5.589844 22.398438 5.347656 22.238281 5.1875 22 5.1875zM23.199219 6.386719C23 6.386719 22.800781 6.589844 22.800781 6.789062 22.800781 7.027344 22.960938 7.1875 23.199219 7.1875 23.441406 7.1875 23.601562 7.027344 23.601562 6.789062 23.601562 6.546875 23.441406 6.386719 23.199219 6.386719zM20.800781 6.386719C20.601562 6.386719 20.398438 6.589844 20.398438 6.789062 20.398438 7.027344 20.558594 7.1875 20.800781 7.1875 21.039062 7.1875 21.199219 7.027344 21.199219 6.789062 21.199219 6.546875 21.039062 6.386719 20.800781 6.386719zM23.199219 3.988281C23 3.988281 22.800781 4.1875 22.800781 4.386719 22.800781 4.628906 22.960938 4.789062 23.199219 4.789062 23.441406 4.789062 23.601562 4.628906 23.601562 4.386719 23.601562 4.148438 23.441406 3.988281 23.199219 3.988281zM20.800781 3.988281C20.601562 3.988281 20.398438 4.1875 20.398438 4.386719 20.398438 4.628906 20.558594 4.789062 20.800781 4.789062 21.039062 4.789062 21.199219 4.628906 21.199219 4.386719 21.199219 4.148438 21.039062 3.988281 20.800781 3.988281zM19.601562 5.1875C19.398438 5.1875 19.199219 5.386719 19.199219 5.589844 19.199219 5.828125 19.359375 5.988281 19.601562 5.988281 19.839844 5.988281 20 5.828125 20 5.589844 20 5.347656 19.839844 5.1875 19.601562 5.1875zM17.199219 5.1875C17 5.1875 16.800781 5.386719 16.800781 5.589844 16.800781 5.828125 16.960938 5.988281 17.199219 5.988281 17.441406 5.988281 17.601562 5.828125 17.601562 5.589844 17.601562 5.347656 17.441406 5.1875 17.199219 5.1875zM18.398438 6.386719C18.199219 6.386719 18 6.589844 18 6.789062 18 7.027344 18.160156 7.1875 18.398438 7.1875 18.640625 7.1875 18.800781 7.027344 18.800781 6.789062 18.800781 6.546875 18.640625 6.386719 18.398438 6.386719zM16 6.386719C15.800781 6.386719 15.601562 6.589844 15.601562 6.789062 15.601562 7.027344 15.761719 7.1875 16 7.1875 16.238281 7.1875 16.398438 7.027344 16.398438 6.789062 16.398438 6.546875 16.238281 6.386719 16 6.386719zM18.398438 3.988281C18.199219 3.988281 18 4.1875 18 4.386719 18 4.628906 18.160156 4.789062 18.398438 4.789062 18.640625 4.789062 18.800781 4.628906 18.800781 4.386719 18.800781 4.148438 18.640625 3.988281 18.398438 3.988281zM16 3.988281C15.800781 3.988281 15.601562 4.1875 15.601562 4.386719 15.601562 4.628906 15.761719 4.789062 16 4.789062 16.238281 4.789062 16.398438 4.628906 16.398438 4.386719 16.398438 4.148438 16.238281 3.988281 16 3.988281zM14.800781 5.1875C14.601562 5.1875 14.398438 5.386719 14.398438 5.589844 14.398438 5.828125 14.558594 5.988281 14.800781 5.988281 15.039062 5.988281 15.199219 5.828125 15.199219 5.589844 15.199219 5.347656 15.039062 5.1875 14.800781 5.1875zM12.398438 5.1875C12.199219 5.1875 12 5.386719 12 5.589844 12 5.828125 12.160156 5.988281 12.398438 5.988281 12.640625 5.988281 12.800781 5.828125 12.800781 5.589844 12.800781 5.347656 12.640625 5.1875 12.398438 5.1875zM13.601562 6.386719C13.398438 6.386719 13.199219 6.589844 13.199219 6.789062 13.199219 7.027344 13.359375 7.1875 13.601562 7.1875 13.839844 7.1875 14 7.027344 14 6.789062 14 6.546875 13.839844 6.386719 13.601562 6.386719zM13.601562 3.988281C13.398438 3.988281 13.199219 4.1875 13.199219 4.386719 13.199219 4.628906 13.359375 4.789062 13.601562 4.789062 13.839844 4.789062 14 4.628906 14 4.386719 14 4.148438 13.839844 3.988281 13.601562 3.988281zM22 2.789062C21.800781 2.789062 21.601562 2.988281 21.601562 3.1875 21.601562 3.429688 21.761719 3.589844 22 3.589844 22.238281 3.589844 22.398438 3.429688 22.398438 3.1875 22.398438 2.949219 22.238281 2.789062 22 2.789062zM22 .386719C21.800781.386719 21.601562.589844 21.601562.789062 21.601562 1.027344 21.761719 1.1875 22 1.1875 22.238281 1.1875 22.398438 1.027344 22.398438.789062 22.398438.546875 22.238281.386719 22 .386719zM23.199219 1.589844C23 1.589844 22.800781 1.789062 22.800781 1.988281 22.800781 2.226562 22.960938 2.386719 23.199219 2.386719 23.441406 2.386719 23.601562 2.226562 23.601562 1.988281 23.601562 1.746094 23.441406 1.589844 23.199219 1.589844zM20.800781 1.589844C20.601562 1.589844 20.398438 1.789062 20.398438 1.988281 20.398438 2.226562 20.558594 2.386719 20.800781 2.386719 21.039062 2.386719 21.199219 2.226562 21.199219 1.988281 21.199219 1.746094 21.039062 1.589844 20.800781 1.589844zM19.601562 2.789062C19.398438 2.789062 19.199219 2.988281 19.199219 3.1875 19.199219 3.429688 19.359375 3.589844 19.601562 3.589844 19.839844 3.589844 20 3.429688 20 3.1875 20 2.949219 19.839844 2.789062 19.601562 2.789062zM17.199219 2.789062C17 2.789062 16.800781 2.988281 16.800781 3.1875 16.800781 3.429688 16.960938 3.589844 17.199219 3.589844 17.441406 3.589844 17.601562 3.429688 17.601562 3.1875 17.601562 2.949219 17.441406 2.789062 17.199219 2.789062zM19.601562.386719C19.398438.386719 19.199219.589844 19.199219.789062 19.199219 1.027344 19.359375 1.1875 19.601562 1.1875 19.839844 1.1875 20 1.027344 20 .789062 20 .546875 19.839844.386719 19.601562.386719zM17.199219.386719C17 .386719 16.800781.589844 16.800781.789062 16.800781 1.027344 16.960938 1.1875 17.199219 1.1875 17.441406 1.1875 17.601562 1.027344 17.601562.789062 17.601562.546875 17.441406.386719 17.199219.386719zM18.398438 1.589844C18.199219 1.589844 18 1.789062 18 1.988281 18 2.226562 18.160156 2.386719 18.398438 2.386719 18.640625 2.386719 18.800781 2.226562 18.800781 1.988281 18.800781 1.746094 18.640625 1.589844 18.398438 1.589844zM16 1.589844C15.800781 1.589844 15.601562 1.789062 15.601562 1.988281 15.601562 2.226562 15.761719 2.386719 16 2.386719 16.238281 2.386719 16.398438 2.226562 16.398438 1.988281 16.398438 1.746094 16.238281 1.589844 16 1.589844zM14.800781 2.789062C14.601562 2.789062 14.398438 2.988281 14.398438 3.1875 14.398438 3.429688 14.558594 3.589844 14.800781 3.589844 15.039062 3.589844 15.199219 3.429688 15.199219 3.1875 15.199219 2.949219 15.039062 2.789062 14.800781 2.789062zM12.398438 2.789062C12.199219 2.789062 12 2.988281 12 3.1875 12 3.429688 12.160156 3.589844 12.398438 3.589844 12.640625 3.589844 12.800781 3.429688 12.800781 3.1875 12.800781 2.949219 12.640625 2.789062 12.398438 2.789062zM14.800781.386719C14.601562.386719 14.398438.589844 14.398438.789062 14.398438 1.027344 14.558594 1.1875 14.800781 1.1875 15.039062 1.1875 15.199219 1.027344 15.199219.789062 15.199219.546875 15.039062.386719 14.800781.386719zM12.398438.386719C12.199219.386719 12 .589844 12 .789062 12 1.027344 12.160156 1.1875 12.398438 1.1875 12.640625 1.1875 12.800781 1.027344 12.800781.789062 12.800781.546875 12.640625.386719 12.398438.386719zM13.601562 1.589844C13.398438 1.589844 13.199219 1.789062 13.199219 1.988281 13.199219 2.226562 13.359375 2.386719 13.601562 2.386719 13.839844 2.386719 14 2.226562 14 1.988281 14 1.746094 13.839844 1.589844 13.601562 1.589844zM13.601562 1.589844"/>
    <path d="M 24 0.398438 C 24 0.160156 23.839844 0 23.601562 0 L 0.398438 0 C 0.160156 0 0 0.160156 0 0.398438 L 0 23.601562 C 0 23.839844 0.160156 24 0.398438 24 L 12 24 C 12.238281 24 12.398438 23.839844 12.398438 23.601562 L 12.398438 18.800781 L 22 18.800781 C 23.121094 18.800781 24 17.558594 24 16 Z M 12.398438 0.800781 L 23.199219 0.800781 L 23.199219 13.75 C 23.089844 13.636719 22.972656 13.539062 22.847656 13.457031 C 22.828125 13.445312 22.8125 13.433594 22.792969 13.421875 C 22.78125 13.414062 22.769531 13.410156 22.757812 13.402344 C 22.742188 13.394531 22.726562 13.386719 22.710938 13.378906 C 22.695312 13.371094 22.679688 13.363281 22.664062 13.355469 C 22.652344 13.347656 22.640625 13.34375 22.628906 13.339844 C 22.609375 13.332031 22.59375 13.320312 22.574219 13.316406 C 22.566406 13.3125 22.558594 13.308594 22.554688 13.304688 C 22.460938 13.269531 22.363281 13.242188 22.265625 13.222656 C 22.253906 13.222656 22.246094 13.222656 22.234375 13.21875 C 22.21875 13.214844 22.199219 13.214844 22.179688 13.210938 C 22.164062 13.210938 22.148438 13.207031 22.132812 13.207031 C 22.121094 13.207031 22.105469 13.203125 22.09375 13.203125 C 22.0625 13.203125 22.03125 13.199219 22 13.199219 L 12.398438 13.199219 Z M 10.398438 18 C 10.019531 18 9.667969 17.675781 9.445312 17.1875 C 9.292969 16.851562 9.199219 16.4375 9.199219 16 C 9.199219 15.765625 9.226562 15.535156 9.273438 15.320312 C 9.449219 14.5625 9.898438 14 10.398438 14 L 20.589844 14 C 20.226562 14.507812 20 15.210938 20 16 C 20 16.789062 20.226562 17.492188 20.589844 18 Z M 11.601562 23.199219 L 0.800781 23.199219 L 0.800781 0.800781 L 11.601562 0.800781 L 11.601562 13.199219 L 10.398438 13.199219 C 9.28125 13.199219 8.398438 14.441406 8.398438 16 C 8.398438 17.558594 9.28125 18.800781 10.398438 18.800781 L 11.601562 18.800781 Z M 22 18 C 21.621094 18 21.269531 17.675781 21.046875 17.1875 C 20.890625 16.851562 20.800781 16.4375 20.800781 16 C 20.800781 15.765625 20.828125 15.535156 20.875 15.320312 C 21.046875 14.5625 21.5 14 22 14 C 22.433594 14 22.828125 14.421875 23.039062 15.027344 C 23.140625 15.320312 23.199219 15.652344 23.199219 16 C 23.199219 17.078125 22.640625 18 22 18 Z M 22 18"/>
</svg>

<svg xmlns="http://www.w3.org/2000/svg" width="32" height="32" viewBox="0 0 24 24">
    <path d="M22 12.387c-.2 0-.398.203-.398.402 0 .238.16.399.398.399.238 0 .398-.16.398-.399 0-.242-.16-.402-.398-.402zm0 0M23.2 11.188c-.2 0-.4.199-.4.402 0 .238.16.398.4.398.241 0 .402-.16.402-.398 0-.242-.16-.402-.403-.402zm0 0M20.8 11.188c-.198 0-.402.199-.402.402 0 .238.16.398.403.398.238 0 .398-.16.398-.398 0-.242-.16-.402-.398-.402zm0 0M19.602 12.387c-.204 0-.403.203-.403.402 0 .238.16.399.403.399.238 0 .398-.16.398-.399 0-.242-.16-.402-.398-.402zm0 0M17.2 12.387c-.2 0-.4.203-.4.402 0 .238.16.399.4.399.241 0 .402-.16.402-.399 0-.242-.16-.402-.403-.402zm0 0M18.398 11.188c-.199 0-.398.199-.398.402 0 .238.16.398.398.398.243 0 .403-.16.403-.398 0-.242-.16-.402-.403-.402zm0 0M16 11.188c-.2 0-.398.199-.398.402 0 .238.16.398.398.398.238 0 .398-.16.398-.398 0-.242-.16-.402-.398-.402zm0 0M14.8 12.387c-.198 0-.402.203-.402.402 0 .238.16.399.403.399.238 0 .398-.16.398-.399 0-.242-.16-.402-.398-.402zm0 0M12.398 12.387c-.199 0-.398.203-.398.402 0 .238.16.399.398.399.243 0 .403-.16.403-.399 0-.242-.16-.402-.403-.402zm0 0M13.602 11.188a.43.43 0 0 0-.403.402c0 .238.16.398.403.398.238 0 .398-.16.398-.398 0-.242-.16-.402-.398-.402zm0 0M22 9.988c-.2 0-.398.2-.398.399 0 .242.16.402.398.402.238 0 .398-.16.398-.402 0-.239-.16-.399-.398-.399zm0 0M22 7.59c-.2 0-.398.2-.398.398 0 .239.16.399.398.399.238 0 .398-.16.398-.399 0-.242-.16-.398-.398-.398zm0 0M23.2 8.79c-.2 0-.4.198-.4.398 0 .242.16.402.4.402.241 0 .402-.16.402-.402 0-.239-.16-.399-.403-.399zm0 0M20.8 8.79c-.198 0-.402.198-.402.398 0 .242.16.402.403.402.238 0 .398-.16.398-.402 0-.239-.16-.399-.398-.399zm0 0M19.602 9.988c-.204 0-.403.2-.403.399 0 .242.16.402.403.402.238 0 .398-.16.398-.402 0-.239-.16-.399-.398-.399zm0 0M17.2 9.988c-.2 0-.4.2-.4.399 0 .242.16.402.4.402.241 0 .402-.16.402-.402 0-.239-.16-.399-.403-.399zm0 0M19.602 7.59c-.204 0-.403.2-.403.398 0 .239.16.399.403.399.238 0 .398-.16.398-.399 0-.242-.16-.398-.398-.398zm0 0M17.2 7.59c-.2 0-.4.2-.4.398 0 .239.16.399.4.399.241 0 .402-.16.402-.399 0-.242-.16-.398-.403-.398zm0 0M18.398 8.79c-.199 0-.398.198-.398.398 0 .242.16.402.398.402.243 0 .403-.16.403-.402 0-.239-.16-.399-.403-.399zm0 0M16 8.79c-.2 0-.398.198-.398.398 0 .242.16.402.398.402.238 0 .398-.16.398-.402 0-.239-.16-.399-.398-.399zm0 0M14.8 9.988c-.198 0-.402.2-.402.399 0 .242.16.402.403.402.238 0 .398-.16.398-.402 0-.239-.16-.399-.398-.399zm0 0M12.398 9.988c-.199 0-.398.2-.398.399 0 .242.16.402.398.402.243 0 .403-.16.403-.402 0-.239-.16-.399-.403-.399zm0 0M14.8 7.59c-.198 0-.402.2-.402.398 0 .239.16.399.403.399.238 0 .398-.16.398-.399 0-.242-.16-.398-.398-.398zm0 0M12.398 7.59c-.199 0-.398.2-.398.398 0 .239.16.399.398.399.243 0 .403-.16.403-.399 0-.242-.16-.398-.403-.398zm0 0M13.602 8.79c-.204 0-.403.198-.403.398 0 .242.16.402.403.402.238 0 .398-.16.398-.402 0-.239-.16-.399-.398-.399zm0 0M22 5.188c-.2 0-.398.199-.398.402 0 .238.16.398.398.398.238 0 .398-.16.398-.398 0-.242-.16-.402-.398-.402zm0 0M23.2 6.387c-.2 0-.4.203-.4.402 0 .238.16.399.4.399.241 0 .402-.16.402-.399 0-.242-.16-.402-.403-.402zm0 0M20.8 6.387c-.198 0-.402.203-.402.402 0 .238.16.399.403.399.238 0 .398-.16.398-.399 0-.242-.16-.402-.398-.402zm0 0M23.2 3.988c-.2 0-.4.2-.4.399 0 .242.16.402.4.402.241 0 .402-.16.402-.402 0-.239-.16-.399-.403-.399zm0 0M20.8 3.988c-.198 0-.402.2-.402.399 0 .242.16.402.403.402.238 0 .398-.16.398-.402 0-.239-.16-.399-.398-.399zm0 0M19.602 5.188a.43.43 0 0 0-.403.402c0 .238.16.398.403.398.238 0 .398-.16.398-.398 0-.242-.16-.402-.398-.402zm0 0M17.2 5.188c-.2 0-.4.199-.4.402 0 .238.16.398.4.398.241 0 .402-.16.402-.398 0-.242-.16-.402-.403-.402zm0 0M18.398 6.387c-.199 0-.398.203-.398.402 0 .238.16.399.398.399.243 0 .403-.16.403-.399 0-.242-.16-.402-.403-.402zm0 0M16 6.387c-.2 0-.398.203-.398.402 0 .238.16.399.398.399.238 0 .398-.16.398-.399 0-.242-.16-.402-.398-.402zm0 0M18.398 3.988c-.199 0-.398.2-.398.399 0 .242.16.402.398.402.243 0 .403-.16.403-.402 0-.239-.16-.399-.403-.399zm0 0M16 3.988c-.2 0-.398.2-.398.399 0 .242.16.402.398.402.238 0 .398-.16.398-.402 0-.239-.16-.399-.398-.399zm0 0M14.8 5.188c-.198 0-.402.199-.402.402 0 .238.16.398.403.398.238 0 .398-.16.398-.398 0-.242-.16-.402-.398-.402zm0 0M12.398 5.188c-.199 0-.398.199-.398.402 0 .238.16.398.398.398.243 0 .403-.16.403-.398 0-.242-.16-.402-.403-.402zm0 0M13.602 6.387c-.204 0-.403.203-.403.402 0 .238.16.399.403.399.238 0 .398-.16.398-.399 0-.242-.16-.402-.398-.402zm0 0M13.602 3.988c-.204 0-.403.2-.403.399 0 .242.16.402.403.402.238 0 .398-.16.398-.402 0-.239-.16-.399-.398-.399zm0 0M22 2.79c-.2 0-.398.198-.398.397 0 .243.16.403.398.403.238 0 .398-.16.398-.402 0-.239-.16-.399-.398-.399zm0 0M22 .387c-.2 0-.398.203-.398.402 0 .238.16.398.398.398.238 0 .398-.16.398-.398 0-.242-.16-.402-.398-.402zm0 0M23.2 1.59c-.2 0-.4.2-.4.398 0 .239.16.399.4.399.241 0 .402-.16.402-.399 0-.242-.16-.398-.403-.398zm0 0M20.8 1.59c-.198 0-.402.2-.402.398 0 .239.16.399.403.399.238 0 .398-.16.398-.399 0-.242-.16-.398-.398-.398zm0 0M19.602 2.79c-.204 0-.403.198-.403.397 0 .243.16.403.403.403.238 0 .398-.16.398-.402 0-.239-.16-.399-.398-.399zm0 0M17.2 2.79c-.2 0-.4.198-.4.397 0 .243.16.403.4.403.241 0 .402-.16.402-.402 0-.239-.16-.399-.403-.399zm0 0M19.602.387c-.204 0-.403.203-.403.402 0 .238.16.398.403.398.238 0 .398-.16.398-.398 0-.242-.16-.402-.398-.402zm0 0M17.2.387c-.2 0-.4.203-.4.402 0 .238.16.398.4.398.241 0 .402-.16.402-.398 0-.242-.16-.402-.403-.402zm0 0M18.398 1.59c-.199 0-.398.2-.398.398 0 .239.16.399.398.399.243 0 .403-.16.403-.399 0-.242-.16-.398-.403-.398zm0 0M16 1.59c-.2 0-.398.2-.398.398 0 .239.16.399.398.399.238 0 .398-.16.398-.399 0-.242-.16-.398-.398-.398zm0 0M14.8 2.79c-.198 0-.402.198-.402.397 0 .243.16.403.403.403.238 0 .398-.16.398-.402 0-.239-.16-.399-.398-.399zm0 0M12.398 2.79c-.199 0-.398.198-.398.397 0 .243.16.403.398.403.243 0 .403-.16.403-.402 0-.239-.16-.399-.403-.399zm0 0M14.8.387c-.198 0-.402.203-.402.402 0 .238.16.398.403.398.238 0 .398-.16.398-.398 0-.242-.16-.402-.398-.402zm0 0M12.398.387C12.2.387 12 .59 12 .789c0 .238.16.398.398.398.243 0 .403-.16.403-.398 0-.242-.16-.402-.403-.402zm0 0M13.602 1.59c-.204 0-.403.2-.403.398 0 .239.16.399.403.399.238 0 .398-.16.398-.399 0-.242-.16-.398-.398-.398zm0 0"/>
    <path d="M24 .398C24 .16 23.84 0 23.602 0H.398C.16 0 0 .16 0 .398v23.204c0 .238.16.398.398.398H12c.238 0 .398-.16.398-.398V18.8H22c1.121 0 2-1.242 2-2.801zM12.398.801H23.2V13.75a2.059 2.059 0 0 0-.351-.293l-.055-.035-.035-.02-.047-.023-.047-.024c-.012-.007-.023-.011-.035-.015-.02-.008-.035-.02-.055-.024a.085.085 0 0 1-.02-.011 1.873 1.873 0 0 0-.288-.082c-.012 0-.02 0-.032-.004-.015-.004-.035-.004-.054-.008-.016 0-.032-.004-.047-.004-.012 0-.028-.004-.04-.004-.03 0-.062-.004-.093-.004h-9.602zm-2 17.199c-.378 0-.73-.324-.953-.813A2.914 2.914 0 0 1 9.2 16c0-.234.028-.465.074-.68.176-.758.625-1.32 1.125-1.32H20.59c-.363.508-.59 1.21-.59 2s.227 1.492.59 2zm1.204 5.2H.8V.8h10.8v12.4h-1.203c-1.117 0-2 1.241-2 2.8 0 1.559.883 2.8 2 2.8h1.204zM22 18c-.379 0-.73-.324-.953-.813A2.852 2.852 0 0 1 20.8 16c0-.234.027-.465.074-.68C21.047 14.562 21.5 14 22 14c.434 0 .828.422 1.04 1.027.1.293.16.625.16.973 0 1.078-.56 2-1.2 2zm0 0"/>
</svg>
